!!!COM:	Ockeghem, Johannes
!!!CDT:	~1425-1497/02/06
!!!OPR:	Requiem
!!!ONM: 5
!!!OTL:	Offertory Domine Jesu Christe
!!!AGN:	Mass; Requiem; Offertory
!!!SCT:	Ock1013e
!!!SCA:	Ock1013e
!!!voices:	5
**kern	**kern	**kern	**kern	**kern
*staff5	*staff4	*staff3	*staff2	*staff1
*Ivox	*Ivox	*Ivox	*Ivox	*Ivox
*I"Contrabassus	*I"Tenor	*I"Contraltus	*I"Discantus2	*I"Discantus1
*I'C	*I'T	*I'C	*I'D2	*I'D1
*>[A,B,C,D,E]	*>[A,B,C,D,E]	*>[A,B,C,D,E]	*>[A,B,C,D,E]	*>[A,B,C,D,E]
*>A	*>A	*>A	*>A	*>A
*clefF4	*clefF4	*clefGv2	*clefGv2	*clefGv2
*k[]	*k[]	*k[]	*k[]	*k[]
*M6/1	*M6/1	*M6/1	*M6/1	*M6/1
*met(O2)	*met(O)	*met(C|)	*met(O2)	*met(O2)
!!primary-mensuration: met(O2)
*rscale:2	*	*rscale:2	*	*rscale:2
=1-	=1-	=1-	=1-	=1-
!!section: rex glorie
!!!OMD: rex glorie
1.E	1E	0E	00.r	0e
.	1C	.	.	.
2C/	.	.	.	.
1BB	2D\	1G	.	2.d\
.	2GG/	.	.	.
.	.	.	.	4e\
1AA	2.C/	1A	.	1f
.	4D\	.	.	.
[0GG	1E	0B	.	1.g
.	1D	.	.	.
.	.	.	.	2f\
=2	=2	=2	=2	=2
0GG]	0.G	0B	00.r	1e
.	.	.	.	0d
1r	.	1B	.	.
1D	1F	1A	.	1f
1C	1G	1c	.	1e
[1D	1r	1A	.	[1f
=3	=3	=3	=3	=3
1D]	1A	1d	00.r	1f]
1GG	0.G	1B	.	1d
0C	.	0c	.	0e
1D	1F	1B-	.	1.d
[1AA	[1E	[1A	.	.
.	.	.	.	[2c\
=4	=4	=4	=4	=4
1AA]	1E]	0A]	00.r	2c\]
.	.	.	.	4B\
.	.	.	.	4c\
2r	0D	.	.	1d
0D	.	.	.	.
.	.	2F/	.	1.f
.	.	4G/	.	.
.	.	4A/	.	.
.	1r	2B-i\	.	.
2C/	.	2A/	.	2e\
2.BB-i/	0D	2G/	.	0d
.	.	2F/	.	.
4GG/	.	.	.	.
1BB-i	.	1G	.	.
=5	=5	=5	=5	=5
00.AA	1E	0A	00.r	0c
.	3C/	.	.	.
.	3F\	.	.	.
.	3G\	.	.	.
.	3%2A	0E	.	1r
.	3B\	.	.	.
.	3%2c	.	.	0e
.	3B\	.	.	.
.	3%2A	2.A/	.	.
.	3G\	.	.	.
.	.	4B\	.	.
.	3A\	1c	.	1c
.	3E\	.	.	.
.	3F\	.	.	.
=6	=6	=6	=6	=6
0.GG	3r	0B	00.r	1d
.	3%2G	.	.	.
.	3%2G	.	.	0d
.	3F\	.	.	.
.	1D	1G	.	.
1r	3%2F	1A	.	0d
.	3G\	.	.	.
1D	3B-i\	1r	.	.
.	3%2A	.	.	.
1AA	3F\	[1A	.	1c
.	3%2E	.	.	.
=7	=7	=7	=7	=7
00.r	0D	1A]	00.r	0d
.	.	2B\	.	.
.	.	1d	.	.
.	1A	.	.	1e
.	.	2c#i\	.	.
.	1.D	1d	.	1d
.	.	1B	.	1d
.	1G	.	.	.
.	.	1G	.	1r
.	2E\	.	.	.
=8	=8	=8	=8	=8
00.r	2.F\	2A/	00.r	1d
.	.	2B\	.	.
.	4E\	.	.	.
.	1C	1c	.	1e
.	2BB/	0G	.	2d\
.	1C	.	.	2.e\
.	.	.	.	4c\
.	2E\	.	.	1c
.	1D	1F	.	.
.	.	.	.	2B\
.	1C	[1G	.	1c
=9	=9	=9	=9	=9
00.r	1E	1G]	00.r	2r
.	.	.	.	2c\
.	1D	1A	.	2d\
.	.	.	.	1f
.	1AA	1c	.	.
.	.	.	.	2e\
.	2D\	2B\	.	2d\
.	2AA/	2.c\	.	2.e\
.	2C/	.	.	.
.	.	4A/	.	4d\
.	2D\	1A	.	1d
.	1E	.	.	.
.	.	2G/	.	2c#i\
=10	=10	=10	=10	=10
*M12/1	*M12/1	*M12/1	*M12/1	*M12/1
*met(2)	*met(2)	*met(2)	*met(2)	*met(2)
*rscale:1	*	*	*	*
00D	1.D	1A	000.r	1d
.	.	1r	.	1r
.	1F	.	.	.
.	.	0r	.	0r
.	2G\	.	.	.
.	2A\	.	.	.
.	2B-i\	.	.	.
0C	4A\	0r	.	0r
.	4G\	.	.	.
.	2F\	.	.	.
.	1E	.	.	.
0D	1D	0r	.	0r
.	1.F	.	.	.
0D	.	0r	.	0r
.	2G\	.	.	.
.	1A	.	.	.
1D	1D	0r	.	0r
1D	1A	.	.	.
=11	=11	=11	=11	=11
1E	2r	000.r	000.r	000.r
.	2G\	.	.	.
1F	2F\	.	.	.
.	2.A\	.	.	.
0D	.	.	.	.
.	4G\	.	.	.
.	2A\	.	.	.
.	4B-i\	.	.	.
.	4A\	.	.	.
.	4G\	.	.	.
.	4F\	.	.	.
0C	2F\	.	.	.
.	4E\	.	.	.
.	4D\	.	.	.
.	1E	.	.	.
0E	1AA	.	.	.
.	1r	.	.	.
1C	1AA	.	.	.
1D	1BB	.	.	.
0F	2AA/	.	.	.
.	1D	.	.	.
.	2BB/	.	.	.
=12	=12	=12	=12	=12
*	*	*rscale:1	*	*rscale:1
1E	2C/	1r	000.r	0r
.	4BB/	.	.	.
.	4C/	.	.	.
1D	2D\	1r	.	.
.	2F\	.	.	.
1.AA	2E\	1r	.	0r
.	2.A\	.	.	.
.	.	1r	.	.
.	4G\	.	.	.
2BB/	2F\	.	.	.
2C/	2E\	1r	.	0r
1D	2D\	.	.	.
.	1E	1r	.	.
2C#i/	.	.	.	.
0D	0D	1r	.	0r
.	.	1r	.	.
0r	0r	00A	.	0e
0r	0r	.	.	0c
=13	=13	=13	=13	=13
000.r	0r	0B	000.r	0d
.	0r	1A	.	0f
.	.	0d	.	.
.	0r	.	.	0e
.	.	1c#i	.	.
.	1D	1d	.	1d
.	1AA	1c	.	1.e
.	1C	2B\	.	.
.	.	2A/	.	2d\
.	1D	0A	.	0d
.	0E	.	.	.
.	.	1G	.	1c#i
=14	=14	=14	=14	=14
0r	1.D	0A	000.r	00d
.	2E\	.	.	.
0r	1F	0r	.	.
.	0G	.	.	.
0r	.	00.d	.	0r
.	1F	.	.	.
[0GG	00B-	.	.	0g
0GG]	.	.	.	0g
1AA	1A	1.c	.	1f
1C	1G	.	.	1e
.	.	2B\	.	.
=15	=15	=15	=15	=15
0D	0F	00A	000.r	0d
1AA	1E	.	.	1c
1D	1F	.	.	0d
1BB	0G	1B	.	.
1C	.	1G	.	1e
0AA	0A	0c	.	1c
.	.	.	.	1f
0r	1E	0B	.	1g
.	1G	.	.	0e
0D	0F	[0A	.	.
.	.	.	.	1d
=16	=16	=16	=16	=16
00AA	0.E	00A]	000.r	00e
.	1r	.	.	.
0A	0AA	0E	.	1r
.	.	.	.	1c
1A	0.D	0F	.	1d
1F	.	.	.	1f
00D	.	0A	.	0f
.	0F	.	.	.
.	.	0B-i	.	1f
.	2E\	.	.	[1f
.	2D\	.	.	.
=17	=17	=17	=17	=17
0AA	0C	0A	000.r	1f]
.	.	.	.	0e
1C	1AA	0r	.	.
1BB	1r	.	.	1d
0C	0AA	0r	.	0e
00D	0.A	0r	.	0f
.	.	0r	.	1d
.	1F	.	.	0d
0AA	0E	0A	.	.
.	.	.	.	1c
=18	=18	=18	=18	=18
1BB	1D	1G	000.r	1d
1C	1AA	1A	.	2c\
.	.	.	.	2B\
1D	0D	1F	.	1A
1F	.	1D	.	1.d
0E	0AA	0A	.	.
.	.	.	.	2B\
.	.	.	.	1c#i
*	*rscale:1/2	*	*	*
0D	1A	1F	.	0d
.	1F	2G/	.	.
.	.	2A/	.	.
0GG	1G	0B-i	.	1r
.	1D	.	.	0d
0BB-i	0r	0G	.	.
.	.	.	.	1d
=19	=19	=19	=19	=19
1AA	0r	1F	000.r	1c
1GG	.	1G	.	1.B-
0C	0r	1E	.	.
.	.	.	.	2A/
.	.	0E	.	0A
0BB-i	0r	.	.	.
.	.	1D	.	1G
00AA	0C	0E	.	0A
.	0E	00A	.	0c
0r	0F	.	.	0d
=20	=20	=20	=20	=20
000.r	0.G	00B	000.r	0e
.	.	.	.	0e
.	1E	.	.	.
.	1F	0.A	.	0d
.	1.D	.	.	.
.	.	.	.	00f
.	2C/	.	.	.
.	1AA	0.c	.	.
.	1r	.	.	.
.	1A	.	.	.
.	1G	1B	.	1e
.	1E	1G	.	1c
=21	=21	=21	=21	=21
0r	0F	0A	000.r	0d
0r	0E	0B	.	0e
00C	00G	[0c	.	0e
.	.	0c]	.	0e
0D	0F	0B	.	0d
0C	1G	0c	.	1e
.	1A	.	.	1f
=22	=22	=22	=22	=22
0G	0B-	0.d	000.r	0g
1D	1A	.	.	1f
1E	0G	1B	.	0e
1C	.	1c	.	.
1D	1F	0A	.	1d
1AA	1E	.	.	1c
1r	1D	0F	.	1B-i
1.D	1F	.	.	0A
.	1G	1r	.	.
2C/	.	.	.	.
1AA	1A	1F	.	1c
1GG	1B-i	1G	.	1d
=23	=23	=23	=23	=23
1r	0A	1c	000.r	1e
0D	.	2d\	.	1.f
.	.	2c\	.	.
.	0D	1A	.	.
.	.	.	.	2d\
1BB-i	.	1G	.	0d
0AA	0E	0A	.	.
.	.	.	.	1c#i
00.Dl	00.Dl	00.Al	.	00.dl
!!LO:LB:i:g=z
*rscale:1	*rscale:1	*rscale:1	*	*rscale:1
=24||	=24||	=24||	=24||	=24||
*>B	*>B	*>B	*>B	*>B
*clefF4	*clefGv2	*clefGv2	*clefGv2	*clefGv2
*k[]	*k[]	*k[]	*k[]	*k[]
*M3/1	*M3/1	*M3/1	*M3/1	*M3/1
*met(O)	*met(O)	*met(O)	*met(O)	*met(O)
!!section: Sed signifer sanctus
!!!OMD: Sed signifer sanctus
1.D	0D	0.r	0.r	0.r
1BB	.	.	.	.
.	1E	.	.	.
2C/	.	.	.	.
=25	=25	=25	=25	=25
2D\	2F/	0.r	0.r	1r
2BB/	1G	.	.	.
1AA	.	.	.	1r
.	2F#i/	.	.	.
1GG	1G	.	.	1d
=26	=26	=26	=26	=26
2r	0F	0.r	0.r	2.d\
1.D	.	.	.	.
.	.	.	.	4c\
.	.	.	.	4B\
.	.	.	.	4A/
.	.	.	.	1A
2C/	[1E	.	.	.
[2AA/	.	.	.	[2c\
=27	=27	=27	=27	=27
2AA/]	2E/]	0.r	0.r	2c\]
2C/	2C/	.	.	4B\
.	.	.	.	4A/
1BB	1D	.	.	1G
[1AA	1E	.	.	1A
=28	=28	=28	=28	=28
1AA]	1r	0.r	0.r	2r
.	.	.	.	1c
1r	0E	.	.	.
.	.	.	.	2d\
1r	.	.	.	2e\
.	.	.	.	4d\
.	.	.	.	4e\
=29	=29	=29	=29	=29
0.r	1D	0.r	0.r	2f\
.	.	.	.	4e\
.	.	.	.	4f\
.	2E/	.	.	2g\
.	2G/	.	.	1e
.	1F	.	.	.
.	.	.	.	2d\
=30	=30	=30	=30	=30
1r	1E	0.r	0.r	1e
0AA	0E	.	.	2r
.	.	.	.	1c
.	.	.	.	4B\
.	.	.	.	4c\
=31	=31	=31	=31	=31
1BB	1D	0.r	0.r	2d\
.	.	.	.	2e\
1.AA	2.C/	.	.	2f\
.	.	.	.	2.e\
.	4D/	.	.	.
.	2E/	.	.	.
.	.	.	.	4d\
[2D\	[2F/	.	.	4c\
.	.	.	.	4B\
=32	=32	=32	=32	=32
2D\]	4F/]	0.r	0.r	2A/
.	4E/	.	.	.
2BB/	2D/	.	.	1d
1AA	1E	.	.	.
.	.	.	.	2c#i\
1r	1D	.	.	[1d
=33	=33	=33	=33	=33
0D	1r	0.r	0.r	1d]
.	1D	.	.	2r
.	.	.	.	1d
1r	1D	.	.	.
.	.	.	.	[2f\
=34	=34	=34	=34	=34
0.r	1F	0.r	0.r	4f\]
.	.	.	.	4e\
.	.	.	.	2d\
.	1E	.	.	2c\
.	.	.	.	1e
.	1G	.	.	.
.	.	.	.	[2d\
=35	=35	=35	=35	=35
0.r	0F	0.r	0.r	2d\]
.	.	.	.	4c\
.	.	.	.	4B\
.	.	.	.	1A
.	1G	.	.	1G
=36	=36	=36	=36	=36
0B-	0G	0.r	0.r	2r
.	.	.	.	1g
.	.	.	.	2e\
1A	1F	.	.	2d\
.	.	.	.	2f\
=37	=37	=37	=37	=37
2G\	2E/	0.r	0.r	2g\
2F\	2D/	.	.	1a
2.D\	2F/	.	.	.
.	2G/	.	.	2g\
4BB/	.	.	.	.
2C/	1A	.	.	2e\
2AA/	.	.	.	[2f\
=38	=38	=38	=38	=38
2BB/	2G/	0.r	0.r	2f\]
2C/	2E/	.	.	1e
1D	1F	.	.	.
.	.	.	.	2d\
1AA	1E	.	.	[1e
=39	=39	=39	=39	=39
1E	1r	0.r	0.r	2e\]
.	.	.	.	1g
2r	1C	.	.	.
1AA	.	.	.	2f\
.	1E	.	.	2e\
2C/	.	.	.	2c\
=40	=40	=40	=40	=40
2BB/	1D	0.r	0.r	2.d\
2.D\	.	.	.	.
.	.	.	.	4c\
.	1F	.	.	1A
4C/	.	.	.	.
1.AA	.	.	.	.
.	1E	.	.	1c
=41	=41	=41	=41	=41
2BB/	1D	0.r	0.r	2d\
2GG/	.	.	.	2B\
2.AA/	2.C/	.	.	2c\
.	.	.	.	1A
4BB/	4D/	.	.	.
2C/	2E/	.	.	.
[2D\	[2F/	.	.	2B\
=42	=42	=42	=42	=42
2D\]	2F/]	0.r	0.r	2A/
2BB/	4E/	.	.	1d
.	4D/	.	.	.
1AA	1E	.	.	.
.	.	.	.	2c#i\
1Dl	1Dl	.	.	1dl
!!LO:LB:i:g=z
*	*rscale:1	*	*	*
=43||	=43||	=43||	=43||	=43||
*>C	*>C	*>C	*>C	*>C
*clefF4	*clefGv2	*clefGv2	*clefGv2	*clefGv2
*k[]	*k[]	*k[]	*k[]	*k[]
*M18/2	*M18/2	*M18/2	*M18/2	*M18/2
*met(O2)	*met(O2)	*met(O2)	*met(O2)	*met(O2)
!!section: quam olim Abrahe promisisti
!!!OMD: quam olim Abrahe promisisti
*rscale:2	*	*rscale:2	*	*rscale:2
0D	[00D	1A	1%9r	2.d\
.	.	.	.	4c\
.	.	1F	.	4B-i\
.	.	.	.	4A/
.	.	.	.	2A/
1BB-	.	1D	.	2r
.	.	.	.	1.d
1GG	.	1G	.	.
1r	2D/]	2F/	.	2B-i\
.	1.C	2E/	.	2A/
0r	.	1G	.	0c
.	1AA	1A	.	.
0r	2C/	2E/	.	2A/
.	2D/	2F/	.	1A
.	1BB-	1D	.	.
.	.	.	.	2G/
=44	=44	=44	=44	=44
*	*clefF4	*	*	*
*M30/2	*M30/2	*M30/2	*M30/2	*M30/2
*met(O.)	*met(O.)	*met(O.)	*met(O.)	*met(O.)
*	*rscale:2	*	*	*
1r	0AA	1.E	1%15r	2A/
.	.	.	.	2.c\
2E\	.	.	.	.
.	.	.	.	4d\
2C/	.	1A	.	1e
2AA/	2C/	.	.	.
2BB/	2D\	2G/	.	4d\
.	.	.	.	4B\
2AA/	2E\	1A	.	2c\
1D	4r	.	.	1d
.	4D\	.	.	.
.	2F\	2B\	.	.
*	*rscale:1	*	*	*
0C	2.E\	1.c	.	2r
.	.	.	.	1e
.	4F\	.	.	.
.	2.G\	.	.	.
.	.	2G/	.	2c\
.	4E\	.	.	.
2BB/	4F\	2r	.	2d\
.	4D\	.	.	.
2C/	1C	2G/	.	2e\
*	*rscale:2	*	*	*
2AA/	.	2A/	.	2c\
2GG/	2BB/	2B\	.	2d\
2AA/	2C/	2A/	.	2c\
2C/	2E\	1.G	.	1c
1GG	1D	.	.	.
.	.	.	.	2B\
1G	1.C	1.E	.	0c
1A	.	.	.	.
.	1F	2r	.	.
2D\	.	0A	.	2r
2AA/	2E\	.	.	2c\
2r	2D\	.	.	1d
1D	1F	.	.	.
.	.	2B\	.	2f\
=45	=45	=45	=45	=45
*M6/1	*M6/1	*M6/1	*M6/1	*M6/1
*met(C.|)	*met(C.|)	*met(C.|)	*met(C.|)	*met(C.|)
*rscale:1	*rscale:1	*rscale:1	*	*rscale:1
0C	1.G	0c	00.r	1e
.	.	.	.	1g
.	2E\	.	.	.
1D	1F	0A	.	1f
1AA	1E	.	.	0a
0BB-i	0D	0d	.	.
.	.	.	.	1g
=46	=46	=46	=46	=46
*	*rscale:1/2	*	*	*
0AA	0C	1e	00.r	2a\
.	.	.	.	2g\
.	.	1c	.	1e
1r	0D	1B-i	.	1f
0D	.	0.A	.	0d
.	1F	.	.	.
1AA	1E	.	.	1c#i
=47	=47	=47	=47	=47
1BB-i	1D	0G	00.r	0d
1GG	0G	.	.	.
0AA	.	0c	.	0r
.	1F#i	.	.	.
[0GG	0G	[0B	.	0r
=48	=48	=48	=48	=48
*	*rscale:1	*	*	*
0GG]	0G	0B]	00.r	1r
.	.	.	.	0d
0r	1F	1A	.	.
.	1E	0G	.	1c
0r	0D	.	.	2B\
.	.	.	.	2A/
.	.	1F	.	1B
=49	=49	=49	=49	=49
00.r	0E	1G	00.r	1c
.	.	0E	.	0A
.	1.C	.	.	.
.	.	1F	.	1F
.	2AA/	.	.	.
.	0BB-i	0D	.	0G
=50	=50	=50	=50	=50
*M12/1	*M12/1	*M12/1	*M12/1	*M12/1
*met(C)	*met(C)	*met(C)	*met(C)	*met(C)
*	*rscale:1/2	*	*	*
0r	0AA	0E	000.r	1A
.	.	.	.	1.c
0E	0C	0A	.	.
.	.	.	.	2d\
.	.	.	.	1e
1F	1D	1B	.	1d
0G	0E	0c	.	1r
.	.	.	.	1g
1A	1D	0d	.	1f
1D	1F	.	.	1.d
1r	1G	1B	.	.
.	.	.	.	2B\
1AA	1E	1A	.	1c
1BB-i	1D	1G	.	1d
=51	=51	=51	=51	=51
*	*rscale:1	*	*	*
1AA	1A	1c	000.r	1f
1GG	1B-	1d	.	1g
0D	1.A	1r	.	0a
.	.	1A	.	.
.	2F\	.	.	.
1C	1G	0c	.	1e
1AA	1A	.	.	1.f
*	*rscale:2	*	*	*
1r	2D\	00.A	.	.
.	2E\	.	.	2d\
0D	2F\	.	.	0d
.	2G\	.	.	.
.	2A\	.	.	.
.	2D\	.	.	.
1AA	1E	.	.	1c#i
[0D	1F	.	.	1d
.	1D	.	.	[1f
=52	=52	=52	=52	=52
1D]	1F	1B-	000.r	2f\]
.	.	.	.	4e\
.	.	.	.	4d\
1AA	1E	1A	.	1c
1D	1F	0B-i	.	1d
1GG	1G	.	.	1e
0AA	0E	00A	.	00c
0AA	0E	.	.	.
00Dl	00Dl	00Al	.	00dl
!!LO:LB:i:g=z
*rscale:1	*rscale:1	*rscale:1	*	*rscale:1
=53||	=53||	=53||	=53||	=53||
*>D	*>D	*>D	*>D	*>D
*clefF4	*clefF4	*clefGv2	*clefGv2	*clefGv2
*k[]	*k[]	*k[]	*k[]	*k[]
*M3/1	*M3/1	*M3/1	*M3/1	*M3/1
*met(O|)	*met(O|)	*met(O|)	*met(O|)	*met(O|)
!!section: Tu suscipe
!!!OMD: Tu suscipe
!	!	!Contraltus becomes Conratenor	!	!
1.D	0.r	0.A	0.r	0.d
2E\	.	.	.	.
1F	.	.	.	.
=54	=54	=54	=54	=54
1G	0.r	1B	0.r	1e
0A	.	0c	.	0f
=55	=55	=55	=55	=55
0B-i	0.r	0d	0.r	0g
1A	.	1c	.	1f
=56	=56	=56	=56	=56
2G\	0.r	2B\	0.r	2e\
2A\	.	2c\	.	1f
1D	.	2A/	.	.
.	.	2F/	.	1d
1E	.	2G/	.	.
.	.	2A/	.	2c#i\
=57	=57	=57	=57	=57
1.D	0.r	1B-i	0.r	1d
.	.	2A/	.	1r
2C/	.	1A	.	.
1BB-i	.	.	.	1d
.	.	2G/	.	.
=58	=58	=58	=58	=58
1AA	0.r	1A	0.r	1c
1r	.	2.B-i\	.	1d
.	.	4A/	.	.
1r	.	1F	.	[1f
=59	=59	=59	=59	=59
0.r	0.r	2A/	0.r	1f]
.	.	2B\	.	.
.	.	2.c\	.	0e
.	.	4B\	.	.
.	.	1G	.	.
=60	=60	=60	=60	=60
0.r	0.r	2A/	0.r	2f\
.	.	0c	.	2e\
.	.	.	.	1c
.	.	.	.	1d
.	.	2B\	.	.
=61	=61	=61	=61	=61
0.r	0.r	0.c	0.r	0c
.	.	.	.	1r
=62	=62	=62	=62	=62
0.B-i	0.r	0.d	0.r	1.g
.	.	.	.	2f\
.	.	.	.	1g
=63	=63	=63	=63	=63
1A	0.r	1.D	0.r	0a
1F	.	.	.	.
.	.	2C/	.	.
1G	.	1BB-i	.	1g
=64	=64	=64	=64	=64
1.A	0.r	1AA	0.r	2.f\
.	.	.	.	4d\
.	.	2A/	.	2e\
2F\	.	1A	.	1d
1E	.	.	.	.
.	.	2G/	.	2c#i\
=65	=65	=65	=65	=65
1D	0.r	0A	0.r	1d
2C/	.	.	.	1r
1D	.	.	.	.
.	.	1G	.	1d
2BB/	.	.	.	.
=66	=66	=66	=66	=66
1AA	0.r	1A	0.r	1c
1BB	.	2G/	.	1d
.	.	2F/	.	.
1C	.	2E/	.	1e
.	.	2AA/	.	.
=67	=67	=67	=67	=67
0D	0.r	2r	0.r	1.f
.	.	1A	.	.
.	.	2B\	.	2d\
1AA	.	1c	.	2.e\
.	.	.	.	4f\
=68	=68	=68	=68	=68
1GG	0.r	1B	0.r	2.g\
.	.	.	.	4f\
2D\	.	2A/	.	4e\
.	.	.	.	4d\
2F\	.	1A	.	1d
1E	.	.	.	.
.	.	2G#i/	.	2c#i\
=69	=69	=69	=69	=69
0D	0.r	0.A	0.r	1d
.	.	.	.	1r
1F	.	.	.	1d
=70	=70	=70	=70	=70
1G	0.r	1r	0.r	1e
0A	.	0F	.	2.f\
.	.	.	.	4e\
.	.	.	.	2.c\
.	.	.	.	4B-i\
=71	=71	=71	=71	=71
1D	0.r	1F	0.r	2A/
.	.	.	.	1B-i
2C/	.	2E/	.	.
2AA/	.	2C/	.	1A
1BB-i	.	1D	.	.
.	.	.	.	2G/
=72	=72	=72	=72	=72
1AA	0.r	1E	0.r	2A/
.	.	.	.	2c\
2BB/	.	1r	.	2d\
1C	.	.	.	1e
.	.	2E/	.	.
2D\	.	2F/	.	[2d\
=73	=73	=73	=73	=73
1E	0.r	1G	0.r	2d\]
.	.	.	.	2c#i\
1.D	.	1A	.	1d
.	.	2B-i\	.	2.f\
[2F\	.	[2A/	.	.
.	.	.	.	4e\
=74	=74	=74	=74	=74
2F\]	0.r	2A/]	0.r	4d\
.	.	.	.	4c\
2E\	.	1G	.	1c
1D	.	.	.	.
.	.	2F/	.	2B\
[1C	.	[1G	.	[1c
=75	=75	=75	=75	=75
1C]	0.r	1G]	0.r	1c]
1r	.	0c	.	1r
[1E	.	.	.	[1g
=76	=76	=76	=76	=76
1E]	0.r	2B\	0.r	1g]
.	.	2c\	.	.
2D\	.	0d	.	1f
2C/	.	.	.	.
1BB	.	.	.	1g
=77	=77	=77	=77	=77
1.AA	0.r	0c	0.r	1.a
2BB/	.	.	.	4g\
.	.	.	.	4f\
1C	.	[1A	.	1e
=78	=78	=78	=78	=78
1D	0.r	1A]	0.r	1r
2AA/	.	2A/	.	0f
2BB/	.	2G/	.	.
2AA/	.	1A	.	.
[2D\	.	.	.	.
=79	=79	=79	=79	=79
2D\]	0.r	2B\	0.r	1e
2C/	.	2c\	.	.
2F\	.	2A/	.	1d
2G\	.	2B\	.	.
2.E\	.	2.G/	.	2.c\
4F\	.	4A/	.	4d\
=80	=80	=80	=80	=80
2G\	0.r	2B\	0.r	2e\
2F\	.	2A/	.	2d\
1B-	.	1d	.	1g
2A\	.	2c\	.	2f\
[2G\	.	[2B\	.	[2e\
=81	=81	=81	=81	=81
2G\]	0.r	2B\]	0.r	2e\]
2.F\	.	2.A/	.	1d
4D\	.	4F/	.	.
2E\	.	2G/	.	2c\
2F\	.	2A/	.	2d\
2G\	.	2B\	.	2B\
=82	=82	=82	=82	=82
2A\	0.r	1c	0.r	2A/
2AA/	.	.	.	1f
2BB/	.	2B\	.	.
2C/	.	1A	.	1e
2D\	.	.	.	.
2F\	.	2F/	.	[2d\
=83	=83	=83	=83	=83
1E	0.r	1G	0.r	2d\]
.	.	.	.	2c#i\
!	!	!	!	!LO:TX:Z=22:t=[Da capo mm. 66-84]
0Dl	.	0Al	.	0dl
!!LO:LB:i:g=z
*rscale:1	*	*rscale:1	*	*rscale:1
=84||	=84||	=84||	=84||	=84||
*>E	*>E	*>E	*>E	*>E
*clefF4	*clefF4	*clefGv2	*clefG2	*clefG2
*k[]	*k[]	*k[]	*k[]	*k[]
*M2/1	*M2/1	*M2/1	*M2/1	*M2/1
*met(C|)	*met(C|)	*met(C|)	*met(C|)	*met(C|)
!!section: Hostias
!!!OMD: Hostias
0r	0r	0r	0d	0a
=85	=85	=85	=85	=85
0r	0r	0r	0d	1a
.	.	.	.	1b
=86	=86	=86	=86	=86
0r	0r	0r	[0a	1.cc
.	.	.	.	2cc\
=87	=87	=87	=87	=87
0r	0r	0r	1a]	1cc
.	.	.	2g/	2b\
.	.	.	2f/	2a/
=88	=88	=88	=88	=88
0r	0r	0r	[0g	0b
=89	=89	=89	=89	=89
0r	0r	0r	0g]	0r
=90	=90	=90	=90	=90
0r	0r	0r	0e	0g
=91	=91	=91	=91	=91
0r	0r	0r	1f	1a
.	.	.	1g	1b
=92	=92	=92	=92	=92
0r	0r	0r	1a	1cc
.	.	.	1f	[1dd
=93	=93	=93	=93	=93
0r	0r	0r	0e	1dd]
.	.	.	.	1cc#i
=94	=94	=94	=94	=94
0r	0r	0r	0d	[0dd
=95	=95	=95	=95	=95
0r	0r	0r	0r	1dd]
.	.	.	.	[1a
=96	=96	=96	=96	=96
0r	0r	0r	0c	1a]
.	.	.	.	1g
=97	=97	=97	=97	=97
0r	0r	0r	0d	0f
=98	=98	=98	=98	=98
0r	0r	0r	0e	0e
=99	=99	=99	=99	=99
0r	0r	0r	[0f	0d
=100	=100	=100	=100	=100
0r	0r	0r	0f]	1r
.	.	.	.	[1a
=101	=101	=101	=101	=101
0r	0r	0r	0e	1a]
.	.	.	.	1g
=102	=102	=102	=102	=102
0r	0r	0r	[0d	1f
.	.	.	.	[1b-
=103	=103	=103	=103	=103
0r	0r	0r	1d]	2b-\]
.	.	.	.	2a/
.	.	.	[1f	[1a
=104	=104	=104	=104	=104
0r	0r	0r	1f]	1a]
.	.	.	1e	1g
=105	=105	=105	=105	=105
0r	0r	0r	0d	1f
.	.	.	.	2e/
.	.	.	.	2d/
=106	=106	=106	=106	=106
0r	0r	0r	0e	0c
=107	=107	=107	=107	=107
0r	0r	0r	1d	1f
.	.	.	1B-i	2g/
.	.	.	.	2a/
=108	=108	=108	=108	=108
0r	0r	0r	1A	2b-i\
.	.	.	.	2a/
.	.	.	[1d	2g/
.	.	.	.	2f/
=109	=109	=109	=109	=109
0r	0r	0r	1d]	0e
.	.	.	1c#i	.
=110	=110	=110	=110	=110
0r	0r	0r	0dl	0dl
==	==	==	==	==
*-	*-	*-	*-	*-
!!!RDF**kern: l=long note in original notation
!!!RDF**kern: i=editorial accidental
!!!RDF**kern: V=start of tuplet marker
!!!RDF**kern: Z=end of tuplet marker
!!!ENC:	Chris Gage 08-27-2012
!!!END:	2012/10/12/
!!!EED:	Jesse Rodin
!!!EEV:	2012/11/05/
!!!ONB:	Translated from MusicXML and edited on 2012/11/05/ by Craig Sapp
!!muse2ps: C^@{COM}^i2I150v85,85,85,85,130Q16
